X: 155
M: 2/4
L: 1/8
K: Ador
E | A <A A> A | B2 E> B |
{B}c2 B> A | B <G G> B | A <A
^G <E D ][ (c/d/) | e> g e c |
d> e d B | c c B> A |
(B<G) G> d | (e>g) ec | d> e d B |
c> c (d/c/) (B/A/) | ^G <E E |]
K:

